X: 123
T: Carpenters Morris
M:3/2
L:1/4
S: 8: MCJLSH3 http://www.cpartington.plus.com/links/Walsh.abc
Z: Pete Stewart 2004
B: Walsh "Third Book of the most Celebrated jiggs, Lancashire hornpipes, ..."
K:Dm
F2E2D/E/F/D/ | EG2A^C2 | F2E2D/E/F/D/ | EA,2^CD2 ||
F2G2A/B/c/A/ | BG2cE2 | F/E/F/G/ A/B/c/A/ B/^c/d | eA2^cd2 ||
f2e2d/e/f/d/ | eg2a^c2 | f2e2d/e/f/d/ | eA2^cd2 ||
F2F/G/AA/B/c | EG2AB2 | AG/F/ E/F/G/E/ FE/D/ | D2^CD3 ||

%%sep 1 1 500
%%sep 1 1 500
